img/m3.svg

<?xml version="1.0" encoding="UTF-8"?>
<svg width="48px" height="48px" viewBox="0 0 48 48" version="1.1" xmlns="http://www.w3.org/2000/svg" xmlns:xlink="http://www.w3.org/1999/xlink">
    <!-- Generator: Sketch 60.1 (88133) - https://sketch.com -->
    <title>m3</title>
    <desc>Created with Sketch.</desc>
    <g id="m3" stroke="none" stroke-width="1" fill="none" fill-rule="evenodd">
        <path d="M36.7249953,33.4285714 L42.9892905,33.4285714 C44.1355288,33.4285714 44.5511826,33.5479186 44.9702302,33.7720278 C45.3892778,33.9961369 45.7181488,34.3250079 45.942258,34.7440555 C46.1663671,35.1631031 46.2857143,35.5787569 46.2857143,36.7249953 L46.2857143,42.9892905 C46.2857143,44.1355288 46.1663671,44.5511826 45.942258,44.9702302 C45.7181488,45.3892778 45.3892778,45.7181488 44.9702302,45.942258 C44.5511826,46.1663671 44.1355288,46.2857143 42.9892905,46.2857143 L36.7249953,46.2857143 C35.5787569,46.2857143 35.1631031,46.1663671 34.7440555,45.942258 C34.3250079,45.7181488 33.9961369,45.3892778 33.7720278,44.9702302 C33.5479186,44.5511826 33.4285714,44.1355288 33.4285714,42.9892905 L33.4285714,36.7249953 C33.4285714,35.5787569 33.5479186,35.1631031 33.7720278,34.7440555 C33.9961369,34.3250079 34.3250079,33.9961369 34.7440555,33.7720278 C35.1631031,33.5479186 35.5787569,33.4285714 36.7249953,33.4285714 Z" id="矩形备份-38" stroke="#FEA903" stroke-width="3.42857143"></path>
        <path d="M5.01070954,13.7142857 L24.9892905,13.7142857 C26.1355288,13.7142857 26.5511826,13.8336329 26.9702302,14.057742 C27.3892778,14.2818512 27.7181488,14.6107222 27.942258,15.0297698 C28.1663671,15.4488174 28.2857143,15.8644712 28.2857143,17.0107095 L28.2857143,36.9892905 C28.2857143,38.1355288 28.1663671,38.5511826 27.942258,38.9702302 C27.7181488,39.3892778 27.3892778,39.7181488 26.9702302,39.942258 C26.5511826,40.1663671 26.1355288,40.2857143 24.9892905,40.2857143 L5.01070954,40.2857143 C3.86447116,40.2857143 3.44881743,40.1663671 3.02976981,39.942258 C2.61072219,39.7181488 2.28185117,39.3892778 2.05774205,38.9702302 C1.83363293,38.5511826 1.71428571,38.1355288 1.71428571,36.9892905 L1.71428571,17.0107095 C1.71428571,15.8644712 1.83363293,15.4488174 2.05774205,15.0297698 C2.28185117,14.6107222 2.61072219,14.2818512 3.02976981,14.057742 C3.44881743,13.8336329 3.86447116,13.7142857 5.01070954,13.7142857 Z" id="矩形" stroke="#6AD2A9" stroke-width="3.42857143"></path>
        <path d="M17.8678524,1.71428571 L37.8464333,1.71428571 C38.9926717,1.71428571 39.4083254,1.83363293 39.827373,2.05774205 C40.2464207,2.28185117 40.5752917,2.61072219 40.7994008,3.02976981 C41.0235099,3.44881743 41.1428571,3.86447116 41.1428571,5.01070954 L41.1428571,24.9892905 C41.1428571,26.1355288 41.0235099,26.5511826 40.7994008,26.9702302 C40.5752917,27.3892778 40.2464207,27.7181488 39.827373,27.942258 C39.4083254,28.1663671 38.9926717,28.2857143 37.8464333,28.2857143 L17.8678524,28.2857143 C16.721614,28.2857143 16.3059603,28.1663671 15.8869127,27.942258 C15.467865,27.7181488 15.138994,27.3892778 14.9148849,26.9702302 C14.6907758,26.5511826 14.5714286,26.1355288 14.5714286,24.9892905 L14.5714286,5.01070954 C14.5714286,3.86447116 14.6907758,3.44881743 14.9148849,3.02976981 C15.138994,2.61072219 15.467865,2.28185117 15.8869127,2.05774205 C16.3059603,1.83363293 16.721614,1.71428571 17.8678524,1.71428571 Z" id="矩形备份-37" stroke="#935ED9" stroke-width="3.42857143"></path>
    </g>
</svg>

<svg xmlns="http://www.w3.org/2000/svg" width="48" height="48" fill="none" stroke-width="3.429" xmlns:v="https://vecta.io/nano"><path d="M36.725 33.43h6.264c1.146 0 1.562.12 1.98.343s.748.553.972.972.343.835.343 1.98v6.264c0 1.146-.12 1.562-.343 1.98s-.553.748-.972.972-.835.343-1.98.343h-6.264c-1.146 0-1.562-.12-1.98-.343s-.748-.553-.972-.972-.343-.835-.343-1.98v-6.264c0-1.146.12-1.562.343-1.98s.553-.748.972-.972.835-.343 1.98-.343z" stroke="#fea903"/><path d="M5.01 13.714h19.98c1.146 0 1.562.12 1.98.343s.748.553.972.972.343.835.343 1.98v19.98c0 1.146-.12 1.562-.343 1.98s-.553.748-.972.972-.835.343-1.98.343H5.01c-1.146 0-1.562-.12-1.98-.343s-.748-.553-.972-.972-.343-.835-.343-1.98V17.01c0-1.146.12-1.562.343-1.98s.553-.748.972-.972.835-.343 1.98-.343z" stroke="#6ad2a9"/><path d="M17.868 1.714h19.98c1.146 0 1.562.12 1.98.343s.748.553.972.972.343.835.343 1.98v19.98c0 1.146-.12 1.562-.343 1.98s-.553.748-.972.972-.835.343-1.98.343h-19.98c-1.146 0-1.562-.12-1.98-.343s-.748-.553-.972-.972-.343-.835-.343-1.98V5.01c0-1.146.12-1.562.343-1.98s.553-.748.972-.972.835-.343 1.98-.343z" stroke="#935ed9"/></svg>
